images/category_icons/moderation-icon.svg

<svg xmlns="http://www.w3.org/2000/svg" fill="none" viewBox="0 0 448 480"><path fill="#000" d="M448 226v-36a37.98 37.98 0 00-16-30.968V128A128.143 128.143 0 00304 0h-37.833a67.785 67.785 0 00-37.72 11.42L224 14.385l-4.447-2.964A67.779 67.779 0 00181.833 0H144a126.913 126.913 0 00-76.816 25.6L76.8 38.4A111.026 111.026 0 01144 16h37.833a51.834 51.834 0 0128.845 8.734l8.884 5.923a7.999 7.999 0 008.876 0l8.884-5.924A51.84 51.84 0 01266.167 16H304a112.127 112.127 0 01112 112v24h-23.1l-81.718-18.573c-35.056-7.967-65.6-35.672-79.714-72.3a7.996 7.996 0 00-7.465-5.124 7.999 7.999 0 00-7.465 5.124c-14.113 36.63-44.658 64.336-79.714 72.3L55.1 152H32v-24a111.635 111.635 0 0129.865-76.145l-11.73-10.88A127.586 127.586 0 0016 128v31.032A37.981 37.981 0 000 190v36a37.984 37.984 0 0016.448 31.281A128.821 128.821 0 0016 268a125.404 125.404 0 004.231 32.5C7.32 314.837 0 334.778 0 356c0 41.907 28.71 76 64 76a54.638 54.638 0 0017.8-2.958A48.087 48.087 0 00128 464v8a8.002 8.002 0 008 8h176a8 8 0 008-8v-8a48.083 48.083 0 0046.2-34.956A54.636 54.636 0 00384 432c31.192 0 57.707-26.428 63.046-62.839l-15.83-2.322C427.038 395.325 407.182 416 384 416a39.016 39.016 0 01-16-3.431V326a37.875 37.875 0 00-11.034-26.747 68.399 68.399 0 0037-35.253H410a37.986 37.986 0 005.911-.46c.059 1.487.089 2.973.089 4.46a108.808 108.808 0 01-4.841 32.344 8.007 8.007 0 002.087 8.135c11.039 10.645 17.843 26.646 18.667 43.9l15.983-.764c-.932-19.491-8.2-37.837-20.128-51.116A125.376 125.376 0 00432 268c0-3.574-.151-7.161-.448-10.718A37.983 37.983 0 00448 226zM16 190a22.024 22.024 0 0122-22h10v80H38a22.028 22.028 0 01-22-22v-36zm0 166c0-18.708 6.836-36.029 18.754-47.521a7.997 7.997 0 002.086-8.135A108.814 108.814 0 0132 268c0-1.485.03-2.972.089-4.46 1.955.307 3.932.461 5.911.46h16.035a68.4 68.4 0 0037 35.253A37.876 37.876 0 0080 326v86.568A39.033 39.033 0 0164 416c-26.468 0-48-26.916-48-60zm336 36h-32v-4.71a57.6 57.6 0 0016-40V344h-16v3.29a41.738 41.738 0 01-12.3 29.7l-1.355 1.355A7.998 7.998 0 00304 384v79.677a41.857 41.857 0 01-36.543-37.5l-9.468-94.688L283.2 350.4a7.993 7.993 0 007.186 1.236 7.989 7.989 0 005.204-5.106L309.766 304H330a22.027 22.027 0 0122 22v66zm-102.44 16h-51.12l8.954-89.546L224 306l16.606 12.454L249.56 408zm34.361-77.06L248 304h44.9l-8.979 26.94zm-119.842 0L155.1 304H200l-35.921 26.94zM138.234 304l14.176 42.53a8 8 0 0012.39 3.87l25.211-18.909-9.468 94.688A41.855 41.855 0 01144 463.677V384a8.003 8.003 0 00-2.343-5.657l-1.356-1.356a41.72 41.72 0 01-12.3-29.7V344H112v3.29a57.596 57.596 0 0016 40V392H96v-66a22.024 22.024 0 0122-22h20.234zM96 416v-8h32v40a32.038 32.038 0 01-32-32zm82.841 48a57.869 57.869 0 0017.622-36.229l.377-3.771h54.32l.377 3.771A57.869 57.869 0 00269.159 464h-90.318zM352 416a32.038 32.038 0 01-32 32v-40h32v8zm-20-128H116a52.06 52.06 0 01-52-52v-1.754l56 14a32.014 32.014 0 103.886-15.522L64 217.754v-51.368l76.367-17.356c34.774-7.9 65.592-32.534 83.633-65.941 18.041 33.407 48.859 58.038 83.632 65.941L384 166.386V236a52.058 52.058 0 01-52 52zm-196-40a15.998 15.998 0 0119.121-15.693 16.012 16.012 0 018.193 4.379 16.005 16.005 0 01-2.425 24.617A15.991 15.991 0 01152 264a16.016 16.016 0 01-16-16zm296-22a22.027 22.027 0 01-22 22h-10v-80h10a22.027 22.027 0 0122 22v36z"/><path fill="#000" d="M152 168a41.833 41.833 0 00-34.438 18.248l-7.905-7.905-11.314 11.314 16 16a7.993 7.993 0 007.763 2.057 7.999 7.999 0 005.637-5.72C130.388 191.736 140.814 184 152 184a24.022 24.022 0 0116.962 7.038A24.022 24.022 0 01176 208h16a40.045 40.045 0 00-40-40zM330.438 186.248A41.833 41.833 0 00296 168a40.045 40.045 0 00-40 40h16a24.022 24.022 0 017.038-16.962A24.022 24.022 0 01296 184c11.186 0 21.612 7.736 24.253 17.994a7.999 7.999 0 0013.4 3.663l16-16-11.314-11.314-7.901 7.905zM224 248a16.016 16.016 0 01-16-16h-16a31.996 31.996 0 009.373 22.627 31.996 31.996 0 0045.254 0A31.996 31.996 0 00256 232h-16a16.016 16.016 0 01-16 16z"/></svg>

<svg width="448" height="480" viewBox="0 0 448 480" fill="none" xmlns="http://www.w3.org/2000/svg">
<path d="M448 226V190C447.999 183.936 446.546 177.96 443.762 172.572C440.979 167.184 436.946 162.542 432 159.032V128C431.962 94.064 418.464 61.529 394.467 37.5327C370.471 13.5363 337.936 0.0383311 304 -4.67298e-05H266.167C252.74 -0.0131912 239.612 3.9615 228.447 11.42L224 14.385L219.553 11.421C208.388 3.96176 195.26 -0.0133166 181.833 -4.67298e-05H144C116.286 -0.0826134 89.3074 8.90849 67.184 25.6L76.8 38.4C96.1534 23.7963 119.755 15.9291 144 16H181.833C192.101 15.9901 202.14 19.0299 210.678 24.734L219.562 30.657C220.876 31.5332 222.42 32.0008 224 32.0008C225.58 32.0008 227.124 31.5332 228.438 30.657L237.322 24.733C245.86 19.0297 255.899 15.9902 266.167 16H304C333.694 16.0336 362.162 27.8443 383.159 48.8411C404.156 69.8379 415.966 98.306 416 128V152H392.9L311.182 133.427C276.126 125.46 245.582 97.755 231.468 61.127C230.887 59.6188 229.863 58.3221 228.53 57.4075C227.198 56.4929 225.619 56.0034 224.003 56.0034C222.387 56.0034 220.808 56.4929 219.476 57.4075C218.143 58.3221 217.119 59.6188 216.538 61.127C202.425 97.7579 171.88 125.463 136.824 133.427L55.1 152H32V128C31.9634 99.7541 42.6354 72.5444 61.865 51.855L50.135 40.975C28.1568 64.6202 15.959 95.7178 16 128V159.032C11.0545 162.542 7.02125 167.184 4.23764 172.572C1.45402 177.96 0.00096662 183.936 0 190V226C0.00133905 232.157 1.49915 238.221 4.36444 243.67C7.22973 249.119 11.3766 253.79 16.448 257.281C16.151 260.828 16 264.424 16 268C15.9825 278.972 17.405 289.898 20.231 300.5C7.32 314.837 0 334.778 0 356C0 397.907 28.71 432 64 432C70.0563 432.007 76.0716 431.008 81.8 429.042C84.6541 439.099 90.7078 447.952 99.0443 454.26C107.381 460.568 117.546 463.987 128 464V472C128 474.122 128.843 476.156 130.343 477.657C131.843 479.157 133.878 480 136 480H312C314.122 480 316.157 479.157 317.657 477.657C319.157 476.156 320 474.122 320 472V464C330.454 463.987 340.619 460.568 348.955 454.26C357.292 447.953 363.345 439.1 366.2 429.044C371.928 431.009 377.944 432.008 384 432C415.192 432 441.707 405.572 447.046 369.161L431.216 366.839C427.038 395.325 407.182 416 384 416C378.484 416 373.031 414.831 368 412.569V326C368.006 315.975 364.039 306.357 356.966 299.253C373.391 292.724 386.651 280.09 393.966 264H410C411.979 264.001 413.956 263.847 415.911 263.54C415.97 265.027 416 266.513 416 268C416.025 278.964 414.393 289.868 411.159 300.344C410.719 301.76 410.681 303.271 411.049 304.707C411.418 306.144 412.178 307.45 413.246 308.479C424.285 319.124 431.089 335.125 431.913 352.379L447.896 351.615C446.964 332.124 439.696 313.778 427.768 300.499C430.595 289.898 432.017 278.971 432 268C432 264.426 431.849 260.839 431.552 257.282C436.623 253.791 440.77 249.12 443.635 243.67C446.501 238.221 447.999 232.157 448 226ZM16 190C16.0066 184.167 18.3266 178.575 22.451 174.451C26.5753 170.327 32.1673 168.007 38 168H48V248H38C32.1673 247.993 26.5753 245.673 22.451 241.549C18.3266 237.425 16.0066 231.833 16 226V190ZM16 356C16 337.292 22.836 319.971 34.754 308.479C35.8215 307.45 36.582 306.144 36.9503 304.707C37.3187 303.271 37.2805 301.76 36.84 300.344C33.6065 289.868 31.9747 278.964 32 268C32 266.515 32.0297 265.028 32.089 263.54C34.0444 263.847 36.0207 264.001 38 264H54.035C61.3503 280.09 74.6101 292.724 91.035 299.253C83.9621 306.357 79.9939 315.975 80 326V412.568C74.9691 414.83 69.5159 415.999 64 416C37.532 416 16 389.084 16 356ZM352 392H320V387.29C330.307 376.528 336.041 362.191 336 347.29V344H320V347.29C320.015 352.808 318.936 358.274 316.825 363.372C314.714 368.47 311.612 373.099 307.7 376.99L306.345 378.345C304.844 379.844 304.001 381.879 304 384V463.677C294.552 462.513 285.784 458.164 279.14 451.347C272.497 444.53 268.376 435.651 267.457 426.177L257.989 331.489L283.2 350.4C284.214 351.161 285.394 351.669 286.644 351.884C287.893 352.099 289.176 352.014 290.386 351.636C291.596 351.259 292.699 350.598 293.603 349.711C294.508 348.823 295.189 347.733 295.59 346.53L309.766 304H330C335.833 304.007 341.425 306.327 345.549 310.451C349.673 314.575 351.993 320.167 352 326V392ZM249.56 408H198.44L207.394 318.454L224 306L240.606 318.454L249.56 408ZM283.921 330.94L248 304H292.9L283.921 330.94ZM164.079 330.94L155.1 304H200L164.079 330.94ZM138.234 304L152.41 346.53C152.811 347.733 153.492 348.823 154.397 349.711C155.301 350.598 156.404 351.259 157.614 351.636C158.824 352.014 160.107 352.099 161.356 351.884C162.606 351.669 163.786 351.161 164.8 350.4L190.011 331.491L180.543 426.179C179.624 435.653 175.502 444.531 168.859 451.348C162.216 458.164 153.447 462.513 144 463.677V384C144 382.949 143.793 381.909 143.391 380.938C142.989 379.968 142.4 379.086 141.657 378.343L140.301 376.987C136.389 373.096 133.287 368.467 131.176 363.369C129.065 358.271 127.985 352.805 128.001 347.287V344H112V347.29C111.958 362.191 117.693 376.528 128 387.29V392H96V326C96.0066 320.167 98.3266 314.575 102.451 310.451C106.575 306.327 112.167 304.007 118 304H138.234ZM96 416V408H128V448C119.516 447.99 111.382 444.616 105.383 438.617C99.384 432.618 96.0095 424.484 96 416ZM178.841 464C188.865 454.424 195.118 441.568 196.463 427.771L196.84 424H251.16L251.537 427.771C252.882 441.568 259.135 454.424 269.159 464H178.841ZM352 416C351.99 424.484 348.616 432.618 342.617 438.617C336.618 444.616 328.484 447.99 320 448V408H352V416ZM332 288H116C102.214 287.984 88.9962 282.501 79.2477 272.752C69.4992 263.004 64.0156 249.786 64 236V234.246L120 248.246C120.057 256.038 122.953 263.542 128.147 269.351C133.341 275.16 140.475 278.875 148.212 279.801C155.949 280.726 163.758 278.797 170.175 274.377C176.592 269.956 181.176 263.347 183.069 255.788C184.961 248.229 184.032 240.239 180.455 233.317C176.877 226.394 170.898 221.014 163.638 218.184C156.377 215.355 148.334 215.27 141.016 217.947C133.698 220.624 127.607 225.878 123.886 232.724L64 217.754V166.386L140.367 149.03C175.141 141.13 205.959 116.496 224 83.089C242.041 116.496 272.859 141.127 307.632 149.03L384 166.386V236C383.984 249.786 378.501 263.004 368.752 272.752C359.004 282.501 345.786 287.984 332 288ZM136 248C136 244.835 136.938 241.742 138.696 239.111C140.455 236.48 142.953 234.429 145.877 233.218C148.801 232.007 152.018 231.69 155.121 232.307C158.225 232.925 161.076 234.449 163.314 236.686C165.551 238.924 167.075 241.775 167.693 244.878C168.31 247.982 167.993 251.199 166.782 254.123C165.571 257.047 163.52 259.545 160.889 261.303C158.258 263.062 155.165 264 152 264C147.758 263.995 143.691 262.308 140.692 259.308C137.692 256.309 136.005 252.242 136 248ZM432 226C431.993 231.833 429.673 237.425 425.549 241.549C421.425 245.673 415.833 247.993 410 248H400V168H410C415.833 168.007 421.425 170.327 425.549 174.451C429.673 178.575 431.993 184.167 432 190V226Z" fill="black"/>
<path d="M152 168C145.21 168.018 138.526 169.689 132.526 172.868C126.526 176.048 121.39 180.64 117.562 186.248L109.657 178.343L98.343 189.657L114.343 205.657C115.341 206.654 116.584 207.369 117.948 207.73C119.311 208.091 120.745 208.085 122.106 207.714C123.466 207.342 124.704 206.617 125.694 205.612C126.684 204.608 127.391 203.36 127.743 201.994C130.388 191.736 140.814 184 152 184C158.363 184.007 164.463 186.538 168.962 191.038C173.462 195.537 175.993 201.637 176 208H192C191.988 197.395 187.77 187.228 180.271 179.729C172.772 172.23 162.605 168.012 152 168Z" fill="black"/>
<path d="M330.438 186.248C326.61 180.64 321.474 176.048 315.474 172.868C309.474 169.689 302.79 168.018 296 168C285.395 168.012 275.228 172.23 267.729 179.729C260.23 187.228 256.012 197.395 256 208H272C272.007 201.637 274.538 195.537 279.038 191.038C283.537 186.538 289.637 184.007 296 184C307.186 184 317.612 191.736 320.253 201.994C320.605 203.36 321.312 204.608 322.302 205.612C323.292 206.617 324.53 207.342 325.89 207.714C327.251 208.085 328.685 208.091 330.048 207.73C331.412 207.369 332.655 206.654 333.653 205.657L349.653 189.657L338.339 178.343L330.438 186.248Z" fill="black"/>
<path d="M224 248C219.758 247.995 215.691 246.308 212.692 243.308C209.692 240.309 208.005 236.242 208 232H192C192 240.487 195.371 248.626 201.373 254.627C207.374 260.629 215.513 264 224 264C232.487 264 240.626 260.629 246.627 254.627C252.629 248.626 256 240.487 256 232H240C239.995 236.242 238.308 240.309 235.308 243.308C232.309 246.308 228.242 247.995 224 248Z" fill="black"/>
</svg>
